logos/google-domains.svg

<?xml version="1.0" encoding="UTF-8"?>
<svg width="512px" height="76px" viewBox="0 0 512 76" version="1.1" xmlns="http://www.w3.org/2000/svg" preserveAspectRatio="xMidYMid">
    <title>Google Domains</title>
    <g>
        <path d="M308.540661,60.6360519 L308.540661,20.3018394 L320.87487,20.3018394 C327.066472,20.3018394 332.020978,22.1697311 335.738389,25.9055145 C339.4558,29.641298 341.311443,34.4978164 341.311443,40.4689457 C341.311443,46.4400749 339.4558,51.2965933 335.738389,55.0323768 C332.020978,58.7681602 327.066472,60.6360519 320.87487,60.6360519 L308.540661,60.6360519 Z M313.721764,55.6876699 L320.87487,55.6876699 C325.529289,55.6876699 329.216079,54.3525867 331.941363,51.6885444 C334.660524,49.0245021 336.026228,45.2825945 336.026228,40.4750699 C336.026228,35.7042907 334.666648,31.9746315 331.941363,29.2922166 C329.222203,26.6098016 325.529289,25.2624699 320.87487,25.2624699 L313.721764,25.2624699 L313.721764,55.6876699 Z M348.158338,36.3289627 C350.82238,33.5301873 354.221331,32.1338617 358.349065,32.1338617 C362.4768,32.1338617 365.87575,33.5363115 368.539792,36.3289627 C371.203835,39.1277382 372.538918,42.6308006 372.538918,46.8381502 C372.538918,51.0454997 371.203835,54.5485622 368.539792,57.3473376 C365.87575,60.1461131 362.4768,61.5424387 358.349065,61.5424387 C354.221331,61.5424387 350.82238,60.1461131 348.158338,57.3473376 C345.494296,54.5485622 344.159212,51.0454997 344.159212,46.8381502 C344.159212,42.6308006 345.494296,39.1277382 348.158338,36.3289627 Z M352.016606,54.0769961 C353.798758,55.9020181 355.91162,56.8084049 358.349065,56.8084049 C360.786511,56.8084049 362.899372,55.8958939 364.681524,54.0769961 C366.463677,52.2580983 367.357815,49.8451496 367.357815,46.8381502 C367.357815,43.8311507 366.463677,41.4182021 364.681524,39.5993043 C362.899372,37.7804064 360.786511,36.8678954 358.349065,36.8678954 C355.91162,36.8678954 353.798758,37.7804064 352.016606,39.5993043 C350.234454,41.4243263 349.340315,43.837275 349.340315,46.8381502 C349.340315,49.7481496 350.177698,52.101806 351.846912,53.8991192 L352.016606,54.0769961 Z M376.213459,60.6421761 L376.213459,33.0341242 L381.167965,33.0341242 L381.167965,36.8678954 L381.394562,36.8678954 C382.184588,35.5511849 383.391063,34.4365741 385.026233,33.5179388 C386.661404,32.5993035 388.284326,32.1399859 389.895,32.1399859 C394.175841,32.1399859 397.084852,33.9037656 398.622035,37.4374493 C400.875754,33.9098898 404.084853,32.1399859 408.249333,32.1399859 C411.51355,32.1399859 413.975493,33.1811059 415.622912,35.26947 C417.276455,37.35171 418.103227,40.1811066 418.103227,43.7515357 L418.103227,60.6544246 L412.922124,60.6544246 L412.922124,44.5293135 C412.922124,41.7489108 412.413813,39.7769071 411.403314,38.6133024 C410.386691,37.4496977 408.849508,36.8678954 406.785641,36.8678954 C404.758519,36.8678954 403.080478,37.7314126 401.745395,39.4584469 C400.410312,41.1854812 399.748895,43.1574849 399.748895,45.374458 L399.748895,60.6421761 L394.567792,60.6421761 L394.567792,44.5293135 C394.567792,41.7489108 394.05948,39.7769071 393.048981,38.6133024 C392.032358,37.4496977 390.495175,36.8678954 388.431308,36.8678954 C386.404186,36.8678954 384.726146,37.7314126 383.391063,39.4584469 C382.055979,41.1854812 381.394562,43.1574849 381.394562,45.374458 L381.394562,60.6421761 L376.213459,60.6421761 Z M431.778644,61.5424387 C428.85126,61.5424387 426.401566,60.6972942 424.429562,59.0070054 C422.457558,57.3167165 421.471557,55.0813706 421.471557,52.3009679 C421.471557,49.2939685 422.635161,46.9422622 424.962371,45.2274763 C427.28958,43.5188147 430.161846,42.6614218 433.579169,42.6614218 C436.61679,42.6614218 439.115478,43.2248515 441.069109,44.3517107 L441.069109,43.5616844 C441.069109,41.5345626 440.370946,39.9116403 438.986869,38.6867932 C437.596668,37.4680704 435.888006,36.8556469 433.860884,36.8556469 C432.360447,36.8556469 431.000866,37.2108526 429.776019,37.9273881 C428.557297,38.6439236 427.718276,39.617677 427.271207,40.8547725 L422.543298,38.8276506 C423.180218,37.1741072 424.435686,35.6430484 426.315826,34.2344743 C428.189842,32.8259002 430.670158,32.1216132 433.750648,32.1216132 C437.278207,32.1216132 440.205592,33.1566089 442.532801,35.2204762 C444.86001,37.2843434 446.023615,40.1994793 446.023615,43.9536354 L446.023615,60.6299277 L441.069109,60.6299277 L441.069109,56.7961565 L440.842512,56.7961565 C438.823512,59.8995461 435.890217,61.4732516 432.036895,61.540207 L431.778644,61.5424387 Z M432.623789,56.8145292 C434.761147,56.8145292 436.708653,56.0183786 438.45406,54.4199532 C440.199467,52.8215279 441.069109,50.9352635 441.069109,48.7550358 C439.605417,47.5546857 437.406816,46.9545106 434.479432,46.9545106 C431.962371,46.9545106 430.069983,47.4995676 428.790017,48.5896814 C427.516177,49.6797953 426.873132,50.9536362 426.873132,52.4234526 C426.873132,53.7769086 427.454934,54.8486497 428.618539,55.6325518 C429.71946,56.370342 430.966855,56.7663618 432.360722,56.8103994 L432.623789,56.8145292 Z M456.208218,26.1076143 C455.497807,26.8241498 454.63429,27.1793554 453.617667,27.1793554 C452.601044,27.1793554 451.737526,26.8241498 451.027115,26.1076143 C450.316704,25.397203 449.955374,24.5275616 449.955374,23.5170628 C449.955374,22.5004398 450.31058,21.6369227 451.027115,20.9265114 C451.737526,20.2161001 452.601044,19.8547702 453.617667,19.8547702 C454.63429,19.8547702 455.491683,20.2099759 456.208218,20.9265114 C456.918629,21.6430469 457.279959,22.5065641 457.279959,23.5170628 C457.279959,24.4681205 456.965313,25.28898 456.330916,25.9796411 L456.208218,26.1076143 Z M456.208218,60.6421761 L451.027115,60.6421761 L451.027115,33.0341242 L456.208218,33.0341242 L456.208218,60.6421761 Z M466.558175,33.0341242 L466.558175,36.8678954 L466.784772,36.8678954 C467.531929,35.5511849 468.72003,34.4365741 470.330704,33.5179388 C471.947502,32.5993035 473.668412,32.1399859 475.511807,32.1399859 C478.92913,32.1399859 481.538055,33.1933543 483.33858,35.293967 C485.139105,37.4007039 486.039367,40.217852 486.039367,43.7454114 L486.039367,60.6483004 L480.858264,60.6483004 L480.858264,44.5293135 C480.858264,39.4217014 478.586173,36.8678954 474.048115,36.8678954 C471.910757,36.8678954 470.16535,37.7252883 468.811894,39.4339499 C467.458438,41.1426115 466.784772,43.1268637 466.784772,45.3805822 L466.784772,60.6483004 L461.603669,60.6483004 L461.603669,33.0341242 L466.558175,33.0341242 Z M501.123358,61.5424387 C498.042868,61.5424387 495.501311,60.7891578 493.492561,59.2887202 C491.483812,57.7882826 490.007872,55.9081424 489.070864,53.6544239 L493.688537,51.7375383 C495.152229,55.1916069 497.650917,56.9186412 501.178477,56.9186412 C502.78915,56.9186412 504.111985,56.5634355 505.146981,55.8469 C506.181977,55.1364888 506.696412,54.1933565 506.696412,53.0297519 C506.696412,51.2292268 505.440944,50.0043797 502.923884,49.3674593 L497.35083,48.0140033 C495.58705,47.5608099 493.915134,46.7095412 492.341205,45.4479488 C490.767277,44.1924806 489.977251,42.4899432 489.977251,40.3464609 C489.977251,37.9028911 491.055116,35.9247632 493.216971,34.3998287 C495.372702,32.8810183 497.938756,32.115489 500.902886,32.115489 C503.340332,32.115489 505.520559,32.6727943 507.437445,33.7751567 C509.35433,34.8836432 510.720035,36.4698201 511.546807,38.5336874 L507.03937,40.3954548 C506.028871,37.951885 503.922134,36.7331622 500.731407,36.7331622 C499.194224,36.7331622 497.895887,37.0516225 496.848642,37.6885429 C495.795274,38.3254634 495.274714,39.1889805 495.274714,40.2790944 C495.274714,41.8140027 496.42479,42.8634516 498.730557,43.4386695 L504.399824,44.7865314 C506.990376,45.3867065 508.901137,46.4217022 510.144357,47.8853944 C511.381452,49.3490866 512,51.0026301 512,52.8460248 C512,55.32634 510.983377,57.3902073 508.956255,59.0437508 C506.984864,60.6599364 504.481256,61.4863815 501.4399,61.5396821 L501.123358,61.5424387 Z" fill="#5F6368"></path>
        <path d="M133.95709,61.5363145 C121.402408,61.5363145 110.850351,51.3027176 110.850351,38.7296629 C110.850351,26.1566082 121.402408,15.9230113 133.95709,15.9230113 C140.901973,15.9230113 145.844231,18.6482959 149.567766,22.2064765 L145.176689,26.5975531 C142.512647,24.0927409 138.899348,22.1452342 133.95709,22.1452342 C124.789111,22.1452342 117.623755,29.5433102 117.623755,38.7235386 C117.623755,47.9037671 124.789111,55.2957189 133.95709,55.2957189 C139.903723,55.2957189 143.290425,52.9072672 145.458404,50.7331637 C147.234432,48.9510113 148.404161,46.3972052 148.845106,42.8880185 L133.79786,42.8880185 L133.79786,36.6719199 L154.901975,36.6719199 C155.122447,37.7865307 155.232683,39.1216139 155.232683,40.5669334 C155.232683,45.2397248 153.952718,51.027127 149.843356,55.142613 C145.915644,59.2327272 140.91868,61.4560823 134.318683,61.5341836 L133.95709,61.5363145 Z M186.839861,46.8503986 C186.839861,55.3079673 180.237935,61.5363145 172.135572,61.5363145 C164.033209,61.5363145 157.431284,55.3079673 157.431284,46.8503986 C157.431284,38.3377118 164.033209,32.1644828 172.135572,32.1644828 C180.237935,32.1644828 186.839861,38.3377118 186.839861,46.8503986 Z M180.40329,46.8503986 C180.40329,41.5651837 176.575643,37.951885 172.135572,37.951885 C167.695502,37.951885 163.867855,41.5651837 163.867855,46.8503986 C163.867855,52.0804954 167.695502,55.7489123 172.135572,55.7489123 C176.575643,55.7489123 180.40329,52.0743712 180.40329,46.8503986 Z M218.845113,46.8503986 C218.845113,55.3079673 212.243188,61.5363145 204.140825,61.5363145 C196.038462,61.5363145 189.436536,55.3018431 189.436536,46.8503986 C189.436536,38.3377118 196.038462,32.1644828 204.140825,32.1644828 C212.243188,32.1644828 218.845113,38.3377118 218.845113,46.8503986 Z M212.408542,46.8503986 C212.408542,41.5651837 208.580895,37.951885 204.140825,37.951885 C199.700754,37.951885 195.873108,41.5651837 195.873108,46.8503986 C195.873108,52.0804954 199.700754,55.7489123 204.140825,55.7489123 C208.580895,55.7489123 212.408542,52.0743712 212.408542,46.8503986 Z M249.460165,33.0524969 L249.460165,59.4173291 C249.460165,70.2633495 243.072588,74.7156684 235.515281,74.7156684 C228.405044,74.7156684 224.130328,69.9326408 222.519654,66.0376273 L228.129454,63.7042937 C229.127704,66.0988696 231.571274,68.9343905 235.515281,68.9343905 C240.347303,68.9343905 243.348178,65.9335153 243.348178,60.3114674 L243.348178,58.1986063 L243.127706,58.1986063 C241.682386,59.9807587 238.908108,61.5363145 235.405045,61.5363145 C228.074336,61.5363145 221.349926,55.142613 221.349926,46.9055168 C221.349926,38.6194266 228.074336,32.1644828 235.405045,32.1644828 C238.901983,32.1644828 241.682386,33.7200386 243.127706,35.4470729 L243.348178,35.4470729 L243.348178,33.0524969 L249.460165,33.0524969 Z M243.789123,46.9055168 C243.789123,41.7305381 240.347303,37.951885 235.956226,37.951885 C231.510032,37.951885 227.792621,41.7366623 227.792621,46.9055168 C227.792621,52.0253773 231.516156,55.7489123 235.956226,55.7489123 C240.347303,55.7489123 243.789123,52.0192531 243.789123,46.9055168 Z M260.538906,17.478567 L260.538906,60.6421761 L254.096211,60.6421761 L254.096211,17.478567 L260.538906,17.478567 Z M285.513537,51.6885444 L290.510913,55.0262525 L290.355748,55.2520081 C288.658244,57.6701928 284.804633,61.5363145 278.293064,61.5363145 C269.95798,61.5363145 263.741881,55.0813706 263.741881,46.8503986 C263.741881,38.1172394 270.019222,32.1644828 277.576528,32.1644828 C285.188952,32.1644828 288.906363,38.2274756 290.13121,41.5100656 L290.798752,43.1758576 L271.182827,51.2965933 C272.683264,54.2423504 275.016598,55.7489123 278.293064,55.7489123 C281.569529,55.7489123 283.847745,54.1382384 285.513537,51.6885444 Z M270.123334,46.4033295 L283.235321,40.9527602 C282.512662,39.1154897 280.344682,37.8355246 277.790876,37.8355246 C274.559917,37.8355246 270.0843,40.6523809 270.119161,46.1686419 L270.123334,46.4033295 Z" fill="#5F6368"></path>
        <path d="M78.6429989,0 C80.6578722,0 82.0174524,2.057743 81.2213019,3.907262 L52.8232236,71.8434022 C51.7453583,74.3298416 49.28954,75.9405154 46.5765038,75.9405154 L27.1688027,75.9405154 C25.1539294,75.9405154 23.7453553,73.950139 24.5476301,72.10062 L26.7707275,66.7664112 L31.6211217,38.4418238 L45.7129867,21.3123382 L52.8905902,4.09711329 C53.9623314,1.61067384 55.9710805,0 58.6841166,0 L78.6429989,0 Z" fill="#4285F4"></path>
        <path d="M45.8109744,21.073493 C40.8748409,16.2782169 34.1136854,13.3569568 26.6788639,13.4365718 C11.7847241,13.6019262 -0.163658588,25.7769056 0.00169576001,40.6281758 C0.160925873,55.246725 11.9990724,67.0052564 26.5808762,67.2134804 C26.6482428,67.0297534 39.625497,46.6605474 39.625497,46.6605474 C39.625497,46.6605474 45.8109744,21.0857415 45.8109744,21.073493 Z" fill="#FBBC04"></path>
        <path d="M45.8109744,21.073493 C45.8109744,21.073493 26.5625035,67.2196046 26.580863,67.2196046 C26.8135971,67.2257289 27.046318,67.2257289 27.279039,67.2196046 C42.179303,67.0542503 54.1215615,54.8853951 53.9562071,40.0280007 C53.8765921,32.5931793 50.7654806,25.8932661 45.8109744,21.073493 Z" fill="#EA4335"></path>
    </g>
</svg>

<svg preserveAspectRatio="xMidYMid" viewBox="0 0 512 76" xmlns="http://www.w3.org/2000/svg">
  <path fill="#5F6368" d="M308.54 60.636V20.302h12.335c6.191 0 11.146 1.868 14.863 5.604 3.718 3.735 5.573 8.592 5.573 14.563s-1.855 10.828-5.573 14.563c-3.717 3.736-8.672 5.604-14.863 5.604H308.54Zm5.182-4.948h7.153c4.654 0 8.341-1.335 11.066-4 2.72-2.663 4.085-6.405 4.085-11.213 0-4.77-1.36-8.5-4.085-11.183-2.719-2.682-6.412-4.03-11.066-4.03h-7.153v30.426Zm34.436-19.359c2.664-2.799 6.063-4.195 10.191-4.195 4.128 0 7.527 1.402 10.19 4.195 2.665 2.799 4 6.302 4 10.51 0 4.206-1.335 7.71-4 10.508-2.663 2.8-6.062 4.195-10.19 4.195-4.128 0-7.527-1.396-10.19-4.195-2.665-2.798-4-6.302-4-10.509 0-4.207 1.335-7.71 4-10.509Zm3.859 17.748c1.782 1.825 3.895 2.731 6.332 2.731 2.438 0 4.55-.912 6.333-2.731 1.782-1.819 2.676-4.232 2.676-7.239 0-3.007-.894-5.42-2.676-7.239-1.783-1.819-3.895-2.731-6.333-2.731-2.437 0-4.55.912-6.332 2.731-1.783 1.825-2.677 4.238-2.677 7.24 0 2.91.838 5.263 2.507 7.06l.17.178Zm24.196 6.565V33.034h4.955v3.834h.227c.79-1.317 1.996-2.431 3.631-3.35 1.635-.919 3.258-1.378 4.869-1.378 4.28 0 7.19 1.764 8.727 5.297 2.254-3.527 5.463-5.297 9.627-5.297 3.265 0 5.726 1.041 7.374 3.13 1.653 2.082 2.48 4.911 2.48 8.482v16.902h-5.18V44.53c0-2.78-.51-4.752-1.52-5.916-1.016-1.163-2.553-1.745-4.617-1.745-2.027 0-3.706.863-5.04 2.59-1.336 1.727-1.997 3.7-1.997 5.916v15.268h-5.181V44.53c0-2.78-.509-4.752-1.519-5.916-1.017-1.163-2.554-1.745-4.618-1.745-2.027 0-3.705.863-5.04 2.59-1.335 1.727-1.996 3.7-1.996 5.916v15.268h-5.182Zm55.566.9c-2.928 0-5.377-.845-7.35-2.535-1.971-1.69-2.957-3.926-2.957-6.706 0-3.007 1.163-5.359 3.49-7.074 2.328-1.708 5.2-2.566 8.617-2.566 3.038 0 5.536.564 7.49 1.69v-.79c0-2.026-.698-3.65-2.082-4.874-1.39-1.219-3.099-1.831-5.126-1.831-1.5 0-2.86.355-4.085 1.071-1.219.717-2.058 1.69-2.505 2.928l-4.728-2.027c.637-1.654 1.893-3.185 3.773-4.594 1.874-1.408 4.354-2.112 7.435-2.112 3.527 0 6.455 1.035 8.782 3.098 2.327 2.064 3.49 4.98 3.49 8.734V60.63h-4.954v-3.834h-.226c-2.02 3.104-4.953 4.677-8.806 4.744l-.258.002Zm.845-4.727c2.137 0 4.085-.797 5.83-2.395 1.745-1.598 2.615-3.485 2.615-5.665-1.464-1.2-3.662-1.8-6.59-1.8-2.517 0-4.409.545-5.689 1.635-1.274 1.09-1.917 2.364-1.917 3.833 0 1.354.582 2.426 1.746 3.21 1.1.737 2.348 1.133 3.742 1.177l.263.005Zm23.584-30.707c-.71.716-1.574 1.071-2.59 1.071-1.017 0-1.88-.355-2.59-1.071a3.542 3.542 0 0 1-1.073-2.59c0-1.018.356-1.881 1.072-2.591a3.532 3.532 0 0 1 2.59-1.072c1.017 0 1.875.355 2.591 1.072.71.716 1.072 1.58 1.072 2.59 0 .951-.315 1.772-.95 2.463l-.122.128Zm0 34.534h-5.18V33.034h5.18v27.608Zm10.35-27.608v3.834h.227c.747-1.317 1.935-2.431 3.546-3.35a10.305 10.305 0 0 1 5.18-1.378c3.418 0 6.027 1.053 7.828 3.154 1.8 2.107 2.7 4.924 2.7 8.451v16.903h-5.18V44.53c0-5.107-2.273-7.661-6.81-7.661-2.138 0-3.884.857-5.237 2.566-1.354 1.709-2.027 3.693-2.027 5.947v15.267h-5.181V33.034h4.954Zm34.565 28.508c-3.08 0-5.622-.753-7.63-2.253-2.01-1.5-3.485-3.38-4.422-5.635l4.618-1.916c1.463 3.454 3.962 5.18 7.49 5.18 1.61 0 2.933-.355 3.968-1.071 1.035-.71 1.55-1.654 1.55-2.817 0-1.8-1.256-3.026-3.773-3.663l-5.573-1.353c-1.764-.453-3.436-1.304-5.01-2.566-1.574-1.256-2.364-2.958-2.364-5.102 0-2.443 1.078-4.421 3.24-5.946 2.156-1.519 4.722-2.285 7.686-2.285 2.437 0 4.618.558 6.534 1.66 1.917 1.109 3.283 2.695 4.11 4.759l-4.508 1.861c-1.01-2.443-3.117-3.662-6.308-3.662-1.537 0-2.835.319-3.882.956-1.054.636-1.574 1.5-1.574 2.59 0 1.535 1.15 2.584 3.456 3.16l5.669 1.348c2.59.6 4.501 1.635 5.744 3.098 1.237 1.464 1.856 3.118 1.856 4.961 0 2.48-1.017 4.544-3.044 6.198-1.971 1.616-4.475 2.442-7.516 2.496l-.317.002Z"/>
  <path fill="#5F6368" d="M133.957 61.536c-12.555 0-23.107-10.233-23.107-22.806s10.552-22.807 23.107-22.807c6.945 0 11.887 2.725 15.61 6.283l-4.39 4.392c-2.664-2.505-6.278-4.453-11.22-4.453-9.168 0-16.333 7.398-16.333 16.579 0 9.18 7.165 16.572 16.333 16.572 5.947 0 9.333-2.389 11.501-4.563 1.776-1.782 2.946-4.336 3.387-7.845h-15.047v-6.216h21.104c.22 1.115.33 2.45.33 3.895 0 4.673-1.28 10.46-5.389 14.576-3.927 4.09-8.924 6.313-15.524 6.391l-.362.002ZM186.84 46.85c0 8.458-6.602 14.686-14.704 14.686-8.103 0-14.705-6.228-14.705-14.686 0-8.512 6.602-14.686 14.705-14.686 8.102 0 14.704 6.174 14.704 14.686Zm-6.437 0c0-5.285-3.827-8.898-8.267-8.898-4.44 0-8.268 3.613-8.268 8.898 0 5.23 3.828 8.899 8.268 8.899 4.44 0 8.267-3.675 8.267-8.899Zm38.442 0c0 8.458-6.602 14.686-14.704 14.686-8.103 0-14.704-6.234-14.704-14.686 0-8.512 6.601-14.686 14.704-14.686 8.102 0 14.704 6.174 14.704 14.686Zm-6.436 0c0-5.285-3.828-8.898-8.268-8.898-4.44 0-8.268 3.613-8.268 8.898 0 5.23 3.828 8.899 8.268 8.899 4.44 0 8.268-3.675 8.268-8.899Zm37.051-13.798v26.365c0 10.846-6.387 15.299-13.945 15.299-7.11 0-11.385-4.783-12.995-8.678l5.61-2.334c.998 2.395 3.441 5.23 7.385 5.23 4.832 0 7.833-3 7.833-8.623V58.2h-.22c-1.446 1.782-4.22 3.337-7.723 3.337-7.33 0-14.055-6.393-14.055-14.63 0-8.287 6.724-14.742 14.055-14.742 3.497 0 6.277 1.556 7.723 3.283h.22v-2.395h6.112Zm-5.67 13.854c0-5.175-3.443-8.954-7.834-8.954-4.446 0-8.163 3.785-8.163 8.954 0 5.12 3.723 8.843 8.163 8.843 4.391 0 7.833-3.73 7.833-8.843Zm16.749-29.427v43.163h-6.443V17.48h6.443Zm24.975 34.21 4.997 3.337-.155.226c-1.698 2.418-5.551 6.284-12.063 6.284-8.335 0-14.551-6.455-14.551-14.686 0-8.733 6.277-14.686 13.835-14.686 7.612 0 11.33 6.063 12.554 9.346l.668 1.666-19.616 8.12c1.5 2.946 3.834 4.453 7.11 4.453 3.277 0 5.555-1.61 7.22-4.06Zm-15.39-5.286 13.111-5.45c-.722-1.838-2.89-3.117-5.444-3.117-3.231 0-7.707 2.816-7.672 8.333l.004.234Z"/>
  <path fill="#4285F4" d="M78.643 0c2.015 0 3.374 2.058 2.578 3.907L52.823 71.843a6.809 6.809 0 0 1-6.246 4.098H27.169c-2.015 0-3.424-1.99-2.621-3.84l2.223-5.335 4.85-28.324 14.092-17.13 7.178-17.215C53.962 1.611 55.97 0 58.684 0h19.959Z"/>
  <path fill="#FBBC04" d="M45.811 21.073a26.95 26.95 0 0 0-19.132-7.636C11.785 13.602-.164 25.777.002 40.628.16 55.247 11.999 67.005 26.58 67.213c.067-.183 13.044-20.552 13.044-20.552s6.186-25.575 6.186-25.588Z"/>
  <path fill="#EA4335" d="M45.811 21.073S26.563 67.22 26.581 67.22c.233.006.465.006.698 0 14.9-.166 26.843-12.335 26.677-27.192-.08-7.435-3.19-14.135-8.145-18.955Z"/>
</svg>
